X:213
T:Peggy Band
O:No 213  Page 104 William Clarke of Feltwell
M:3/4
L:1/8
N:Bar B4 is in 4/4 as written in the m.s.
K:C
G2|c2ecdB|cAF2GE|CEG2AB|c4::Bc|d2defd|ecA2Bc|defedd|(c2B3A)G2|c2ecdB|cAF2GE|CEG2AB|c4:|

